X:498010
T: The Drops Of Brandy
H:
C:
B:
O:Kevin Fraser
Z:Kevin Fraser
Q:3/8=120
K:HP
M:9/8
L:1/8
R:Slip Jig
U: R = ///
U: r = //
U: V = !accent!
V:M gstem=up stem=down name="Melody"
V:H gstem=up stem=down name="Harmony"
V:C gstem=up stem=down name="C-Harmony"
V:S gstem=up stem=down dyn=up stafflines=1 clef=perc middle=G name="Snare" sname="Snare"
V:B gstem=up stem=down clef=none dyn=up name="Bass"
V:T gstem=up stem=down clef=none dyn=up name="Tenor"
V:BB gstem=up stem=down name="Brass Bass" sname="ABCD-C" transpose=-1  octave=-1 clef=bass
V:BC gstem=up stem=down name="Brass Chord" sname="ABCD-D" transpose=-1
V:BD gstem=up stem=down name="Brass Chord 2" sname="ABCD-B" transpose=-1
V:P gstem=up stem=down name="Piano" octave=-1
I:MIDI=program 110
%%MIDI gracedivider 4
I:linebreak $
% %score {M H}
%%MIDI program 109 #bagpipes
%%MIDI vol 100
[V:M]|: {g}e2d  {g}c{d}A{e}c {g}c{d}A{e}c | {g}e2d  {g}c{d}A{e}c {Gdc}d2{e}B | {g}e2d {g}c{d}A{e}c {g}c{d}A{e}c  | {g}f2{e}f {gBd}B2{e}c {g}dc{e}B :|$
[V:M]|: {g}A{d}ce {ag}ae{g}c {ag}ae{g}c   | {g}A{d}ce {ag}ae{g}c {Gdc}dc{e}B | {g}A{d}ce {ag}ae{g}c {ag}ae{g}c   | {Gdc}d2{c}d {gBd}B2{e}c {Gdc}dc{e}B :|$
[V:M]|: {g}efe {g}c{d}A{e}c {g}c{d}A{e}c  | {g}efe  {g}c{d}A{e}c {Gdc}dc{e}B | {g}efe  {g}c{d}A{e}c {g}c{d}A{e}c | {Gdc}dcd {gBd}B2{e}c {Gdc}dc{e}B :|$
[V:M]|: {g}A{d}ce {ag}ae{g}c {ag}ae{g}c   | {g}A{d}ce {ag}ae{g}c {Gdc}dc{e}B | {g}A{d}ce [1{ag}ae{g}c [2{ag}ac{e}B] {ag}ae{g}c    | {Gdc}dcd {gBd}B2{e}c {Gdc}dc{e}B :|


